X:1
T:Title
%%score { ( 1 2 ) | ( 3 4 ) }
L:1/8
Q:1/4=100
M:4/4
K:Bb
V:1 treble nm="Grand Piano"
V:2 treble 
V:3 bass 
V:4 bass 
V:1
 F2 G2 [B,D]2 [DG]2 | F2 G2 [B,D]4 | .F2 .A2 [DFc]2 [DFB]2 | [EFA]6 z2 | A2 B2 G4 | A2 B2 G4 | %6
w: E.~S.~Lorenz * * *||||||
 AG .A2 [EAc]2 [FAd]2 |[M:7/8] F-F-F- F3[K:bass] z |[M:1/8][K:treble] F | %9
w: |||
[M:4/4] [DFd]2 [DFd]2 [DFd]3 F | [DFc]2 [DFc]2 [DFc]2 .[DFB]2 | B2 .A2 [CEA]2 [CEG]E | %12
w: |||
 [B,EG]2 [B,DF]2 [B,DF]2 F,2 | z B3 z c3 | e2 e2 d2 BA | [EG]B[FA]G [B,F]2 [FBd]2 | %16
w: ||||
 [EAc]3 [FB] [DFB]4 |] %17
w: |
V:2
 D4 z4 | D4 z4 | D4 z4 | x8 | [CE]8- | [CE]8- | [CE]4 z4 | %7
[M:7/8] [B,D]2 [A,E]2[K:bass] [F,B,D]2 z |[M:1/8][K:treble] x |[M:4/4] x8 | x8 | [CE]4 z4 | x8 | %13
 .G2 G,2 .A2 A,2 | x8 | x8 | x8 |] %17
V:3
 B,,2 F,2 F,,2 F,2 | B,,2 F,2 F,,2 F,2 | z[K:treble] G z B[K:bass] F,,2 F,2 | C,2 F,2 F,,2 F,2 | %4
 F,,2 F,2 C,2 z[K:treble] B | F,,2 F,2 C,2 F,2 | z2 F,2[K:treble][K:bass] z4 | %7
[M:7/8] B,,2 F,,2 B,,2 z |[M:1/8] D |[M:4/4] z4 z2 F,2 | z4 z2 F,2 | C,2 z E F,,2 z C | %12
 B,,2 F,2 F,,2 B,,2 | [B,E][K:treble] [EG]3 [CE] [EA]3 | [G,B,E]2 [A,CF]2 [B,F]2 DF | %15
 z G z E D,2 B,,2 | F,2 z D B,,4 |] %17
V:4
 x8 | x8 | B,,2[K:treble] F,2[K:bass] z4 | x8 | z4 z2 F,2[K:treble] | x8 | %6
 F,,2 z[K:treble] B[K:bass] C,2 F,,2 |[M:7/8] x7 |[M:1/8] x |[M:4/4] B,,2 F,2 F,,2 z D | %10
 B,,2 F,2 F,,2 z G | z2 F,2 z2 F,2 | x8 | E,2[K:treble] z2 F,2 z2 | x8 | E,2 B,2 z4 | z2 F,,2 z4 |] %17

